static/logos/deel-wordmark-color.svg

<svg width="50" height="18" viewBox="0 0 50 18" fill="none" xmlns="http://www.w3.org/2000/svg">
<g clip-path="url(#clip0_1_3097)">
<path d="M40.6788 17.053C40.6059 17.053 40.5469 16.9939 40.5469 16.921V1.02205C40.5469 0.959458 40.5909 0.905479 40.6521 0.892805L43.4289 0.318699C43.5108 0.301766 43.5876 0.36431 43.5876 0.447944V16.921C43.5876 16.9939 43.5285 17.053 43.4556 17.053H40.6788Z" fill="#1C4396"/>
<path d="M5.79643 17.3893C4.68782 17.3893 3.69799 17.1201 2.82694 16.5816C1.9559 16.0431 1.26698 15.3067 0.760188 14.3723C0.253396 13.4379 0 12.3768 0 11.189C0 10.0013 0.253396 8.94807 0.760188 8.02952C1.26698 7.09508 1.9559 6.36656 2.82694 5.84393C3.69799 5.30547 4.68782 5.03624 5.79643 5.03624C6.68331 5.03624 7.45935 5.20253 8.12449 5.53511C8.65877 5.80224 9.1113 6.15621 9.48203 6.59702C9.56558 6.69632 9.73993 6.63985 9.73993 6.51009V0.736157C9.73993 0.673571 9.78384 0.619589 9.84514 0.606917L12.622 0.0328102C12.7038 0.0158769 12.7807 0.0784214 12.7807 0.162055V16.9723C12.7807 17.0452 12.7215 17.1042 12.6487 17.1042H10.1809C10.1179 17.1042 10.0637 17.0597 10.0514 16.9978L9.79833 15.7141C9.77609 15.601 9.6279 15.5674 9.55413 15.6559C9.19978 16.081 8.75486 16.4608 8.21949 16.7954C7.60188 17.1913 6.79417 17.3893 5.79643 17.3893ZM6.43783 14.7286C7.41971 14.7286 8.21949 14.404 8.83717 13.7547C9.47065 13.0895 9.78739 12.2422 9.78739 11.2128C9.78739 10.1834 9.47065 9.34401 8.83717 8.69466C8.21949 8.02952 7.41971 7.69691 6.43783 7.69691C5.47176 7.69691 4.67198 8.02155 4.03849 8.6709C3.405 9.32024 3.08826 10.1596 3.08826 11.189C3.08826 12.2184 3.405 13.0658 4.03849 13.7309C4.67198 14.396 5.47176 14.7286 6.43783 14.7286Z" fill="#1C4396"/>
<path d="M20.199 17.3911C19.0112 17.3911 17.958 17.1377 17.0395 16.631C16.1209 16.1241 15.4003 15.4115 14.8777 14.4929C14.3551 13.5744 14.0938 12.5133 14.0938 11.3097C14.0938 10.0902 14.3472 9.0053 14.8539 8.05509C15.3766 7.10484 16.0893 6.36841 16.9919 5.84578C17.9105 5.30732 18.9874 5.03809 20.2227 5.03809C21.3789 5.03809 22.4003 5.29148 23.2872 5.79827C24.1741 6.30506 24.863 7.0019 25.354 7.88878C25.8608 8.7598 26.1142 9.73385 26.1142 10.8107C26.1142 10.9849 26.1063 11.1671 26.0904 11.3571C26.0904 11.5094 26.0853 11.6667 26.0752 11.8291C26.0709 11.8979 26.0135 11.951 25.9445 11.951H17.2522C17.1756 11.951 17.115 12.016 17.1226 12.092C17.2075 12.9436 17.5203 13.6173 18.061 14.1128C18.6469 14.6354 19.3517 14.8968 20.1753 14.8968C20.7929 14.8968 21.3076 14.7621 21.7194 14.4929C22.1224 14.2243 22.4269 13.8853 22.633 13.476C22.656 13.4301 22.7024 13.4002 22.7538 13.4002H25.5809C25.6691 13.4002 25.7325 13.4852 25.7046 13.569C25.4786 14.2478 25.1242 14.8725 24.6414 15.4431C24.1345 16.0449 23.5011 16.5201 22.7409 16.8685C21.9965 17.2169 21.1493 17.3911 20.199 17.3911ZM20.2227 7.50871C19.4784 7.50871 18.8211 7.72248 18.251 8.15009C17.716 8.53654 17.3623 9.11813 17.1898 9.89509C17.1719 9.97567 17.2344 10.0506 17.3169 10.0506H22.8856C22.9617 10.0506 23.0223 9.98639 23.0146 9.91074C22.9429 9.20001 22.6616 8.62893 22.1707 8.19762C21.6481 7.73835 20.9988 7.50871 20.2227 7.50871Z" fill="#1C4396"/>
<path d="M33.4256 17.3911C32.2378 17.3911 31.1846 17.1377 30.266 16.631C29.3475 16.1241 28.6269 15.4115 28.1043 14.4929C27.5816 13.5744 27.3203 12.5133 27.3203 11.3097C27.3203 10.0902 27.5737 9.0053 28.0805 8.05509C28.6031 7.10484 29.3158 6.36841 30.2186 5.84578C31.1371 5.30732 32.214 5.03809 33.4494 5.03809C34.6055 5.03809 35.627 5.29148 36.5139 5.79827C37.4007 6.30506 38.0897 7.0019 38.5806 7.88878C39.0874 8.7598 39.3408 9.73385 39.3408 10.8107C39.3408 10.9849 39.3328 11.1671 39.3171 11.3571C39.3171 11.5094 39.312 11.6667 39.3018 11.8291C39.2975 11.8979 39.24 11.951 39.171 11.951H30.4787C30.4023 11.951 30.3416 12.016 30.3492 12.092C30.4342 12.9436 30.7469 13.6173 31.2876 14.1128C31.8736 14.6354 32.5783 14.8968 33.4018 14.8968C34.0195 14.8968 34.5342 14.7621 34.946 14.4929C35.3489 14.2243 35.6534 13.8853 35.8595 13.476C35.8826 13.4301 35.9291 13.4002 35.9805 13.4002H38.8074C38.8957 13.4002 38.9591 13.4852 38.9312 13.569C38.7052 14.2478 38.3507 14.8725 37.8679 15.4431C37.3611 16.0449 36.7276 16.5201 35.9675 16.8685C35.2231 17.2169 34.3758 17.3911 33.4256 17.3911ZM33.4494 7.50871C32.705 7.50871 32.0478 7.72248 31.4776 8.15009C30.9426 8.53654 30.5889 9.11813 30.4165 9.89509C30.3986 9.97567 30.461 10.0506 30.5435 10.0506H36.1122C36.1883 10.0506 36.2489 9.98639 36.2413 9.91074C36.1694 9.20001 35.8881 8.62893 35.3973 8.19762C34.8747 7.73835 34.2254 7.50871 33.4494 7.50871Z" fill="#1C4396"/>
<path d="M47.5706 17.0565C48.7012 17.0565 49.6178 16.14 49.6178 15.0093C49.6178 13.8787 48.7012 12.9622 47.5706 12.9622C46.44 12.9622 45.5234 13.8787 45.5234 15.0093C45.5234 16.14 46.44 17.0565 47.5706 17.0565Z" fill="#2C71F0"/>
</g>
<defs>
<clipPath id="clip0_1_3097">
<rect width="50" height="17.3913" fill="white"/>
</clipPath>
</defs>
</svg>

<svg xmlns="http://www.w3.org/2000/svg" width="177.778" height="64" fill="none" viewBox="0 0 50 18"><g clip-path="url(#a)"><path fill="#1C4396" d="M40.679 17.053a.132.132 0 0 1-.132-.132V1.022c0-.063.044-.117.105-.13L43.43.32a.132.132 0 0 1 .159.129V16.92c0 .073-.06.132-.132.132h-2.777ZM5.796 17.39c-1.108 0-2.098-.27-2.97-.808a5.787 5.787 0 0 1-2.066-2.21C.253 13.438 0 12.377 0 11.19c0-1.188.253-2.24.76-3.16.507-.934 1.196-1.662 2.067-2.185.871-.539 1.86-.808 2.97-.808.886 0 1.662.167 2.327.5.535.266.987.62 1.358 1.061.084.1.258.043.258-.087V.736c0-.062.044-.116.105-.13l2.777-.573a.132.132 0 0 1 .159.13v16.81c0 .072-.06.131-.132.131H10.18a.132.132 0 0 1-.13-.106l-.253-1.284c-.022-.113-.17-.147-.244-.058-.354.425-.8.805-1.335 1.14-.617.395-1.425.593-2.423.593Zm.642-2.661c.982 0 1.781-.325 2.4-.974.633-.666.95-1.513.95-2.542 0-1.03-.317-1.869-.95-2.518-.619-.665-1.418-.998-2.4-.998-.966 0-1.766.325-2.4.974-.633.65-.95 1.489-.95 2.518 0 1.03.317 1.877.95 2.542.634.665 1.434.998 2.4.998ZM20.199 17.391c-1.188 0-2.241-.253-3.16-.76a5.502 5.502 0 0 1-2.161-2.138c-.523-.919-.784-1.98-.784-3.183 0-1.22.253-2.305.76-3.255a5.63 5.63 0 0 1 2.138-2.21c.918-.538 1.995-.807 3.23-.807 1.157 0 2.178.253 3.065.76a5.352 5.352 0 0 1 2.067 2.09c.507.872.76 1.846.76 2.923 0 .174-.008.356-.024.546 0 .152-.005.31-.015.472a.13.13 0 0 1-.13.122h-8.693a.13.13 0 0 0-.13.141c.085.852.398 1.525.939 2.02.586.523 1.29.785 2.114.785.618 0 1.133-.135 1.544-.404.403-.269.708-.608.914-1.017a.136.136 0 0 1 .12-.076h2.828c.088 0 .152.085.124.169a5.643 5.643 0 0 1-1.064 1.874 5.369 5.369 0 0 1-1.9 1.426c-.744.348-1.592.522-2.542.522Zm.024-9.882c-.745 0-1.402.213-1.972.641-.535.387-.889.968-1.061 1.745a.129.129 0 0 0 .127.156h5.569a.128.128 0 0 0 .129-.14c-.072-.711-.353-1.282-.844-1.713-.523-.46-1.172-.69-1.948-.69ZM33.426 17.391c-1.188 0-2.241-.253-3.16-.76a5.503 5.503 0 0 1-2.162-2.138c-.522-.919-.784-1.98-.784-3.183 0-1.22.254-2.305.76-3.255a5.628 5.628 0 0 1 2.139-2.21c.918-.538 1.995-.807 3.23-.807 1.157 0 2.178.253 3.065.76a5.352 5.352 0 0 1 2.067 2.09c.506.872.76 1.846.76 2.923 0 .174-.008.356-.024.546 0 .152-.005.31-.015.472a.13.13 0 0 1-.131.122h-8.692a.13.13 0 0 0-.13.141c.085.852.398 1.525.939 2.02.586.523 1.29.785 2.114.785.617 0 1.132-.135 1.544-.404.403-.269.707-.608.913-1.017a.136.136 0 0 1 .121-.076h2.827c.089 0 .152.085.124.169a5.643 5.643 0 0 1-1.063 1.874 5.369 5.369 0 0 1-1.9 1.426c-.745.348-1.592.522-2.542.522Zm.023-9.882c-.744 0-1.401.213-1.971.641-.535.387-.89.968-1.062 1.745a.129.129 0 0 0 .128.156h5.568a.128.128 0 0 0 .13-.14c-.073-.711-.354-1.282-.845-1.713-.522-.46-1.172-.69-1.948-.69Z"/><path fill="#2C71F0" d="M47.57 17.056a2.047 2.047 0 1 0 0-4.094 2.047 2.047 0 0 0 0 4.095Z"/></g><defs><clipPath id="a"><path fill="#fff" d="M0 0h50v17.391H0z"/></clipPath></defs></svg>
